!!!!SEGMENT: pl-kozmzk--mzk-m-346--031_walczynski-franciszek--cantantibus-organis-allegro-moderato.krn
!!!cenid: 18xx:2826
!!!COM: Walczyński, Franciszek
!!!COM-rismid: pe30021989
!!!CDT: ~1852-1937
!!!CNT: Polish
!!!GTL: Cantantibus organis op. 10
!!!OTL: 31. Allegro moderato
!!!PDT: 1898
!!!AGN: Secular
!!!SMS-siglum: PL-KOZmzk
!!!SMS-shelfmark: mzk/m/346
!!!SMS-shelfwork: 031 G
!!!SMS-variant:
!!!SMS-altvar:
!!!NIFC-rismid: 1001109423
!!!URL-scan: https://repozytorium.nifc.pl/islandora/object/pl-kozmzk%3A7453/datastream/PDF/view
!!!ONB-nifc:
!!!key:
**kern	**kern	**dynam
*part1	*part1	*part1
*staff2	*staff1	*
*Iorgan	*Iorgan	*
*I"Organo	*I"Organo	*
*clefF4	*clefG2	*
*k[b-]	*k[b-]	*
*F:	*F:	*
*M3/4	*M3/4	*
=1	=1	=1
*^	*^	*
!!LO:TX:B:a:t=Allegro moderato.
!LO:TX:i:b=2:t=Ped.	!	!	!	!
4c/	([2.F\	(2ff/	4a\	p
4d/	.	.	2b-\	.
4e/	.	4dd/	.	.
=2	=2	=2	=2	=2
2f/	2.F\]	2cc/	2a\	.
4c/	.	4a/	4f\	.
=3	=3	=3	=3	=3
[2.c/	2.E\	4.cc/	2.g\	.
.	.	8dd/L	.	.
.	.	8cc/	.	.
.	.	8b-/J	.	.
=4	=4	=4	=4	=4
2c,/]	2F\)	2a,/)	2f\	.
!	!	!	!	!LO:DY:a
(4c#X/	(4E\	(4a/	(4g\	f
=5	=5	=5	=5	=5
4d/	4D\	4ff/	4a\	.
2Bn/	4G\	4ee/	4g\	.
.	4G#X\	4dd/	4f\	.
=6	=6	=6	=6	=6
2c/	2A\	2cc/	2e\	.
4A/)	4F\)	4dd/	4a\)	.
=7	=7	=7	=7	=7
(2Bn/	(2.E\	4.ee/	2.g#X\	.
.	.	8dd/L	.	.
!	!	!	!	!LO:HP:a
8e/L	.	8cc/	.	>
8d/J	.	8bn/J	.	.
=8	=8	=8	=8	=8
2.c/)	2.A\)	2.a/)	2.e\	]
=9	=9	=9	=9	=9
([2.c/	(4.G\	(4.b-X/	2.e\	pp
.	8A\	8a/	.	.
.	4B-X\	4g/	.	.
=10	=10	=10	=10	=10
2c/]	2A\	2cc/	[2.f\	.
[4d/	4D\	4a/	.	.
=11	=11	=11	=11	=11
!	!	!	!	!LO:DY:a
4.d/]	4.GG\	4.b-/	2.f\]	fp
8c/	8AA\	8a/	.	.
4d/	4BB-\	4g/	.	.
=12	=12	=12	=12	=12
2.c#X/)	2.AA\)	2.a/)	2.e\	.
=13	=13	=13	=13	=13
2.rGG	2.r	(4a/	2.r	f
.	.	8bn/L	.	.
.	.	8cc#X/	.	.
.	.	8dd/	.	.
.	.	8ee/J	.	.
=14	=14	=14	=14	=14
!!LO:LB:g=original
2.rGG	2.r	4ff/	2.r	.
.	.	4dd/	.	.
.	.	4bn/)	.	.
=15	=15	=15	=15	=15
!	!LO:TX:i:b=2:t=Ped.	!	!	!
4E/	[2.C\	([2.cc/	(4c\	p
8F/L	.	.	8d\L	.
8G/	.	.	8e\	.
8A/	.	.	8f\	.
8B-X/J	.	.	8g\J	.
=16	=16	=16	=16	=16
4d/	2.C\_	2.cc/_	4b-\	<
4c/	.	.	4a\	.
4B-/	.	.	4g\	.
=17	=17	=17	=17	=17
!LO:TX:b:i:t=rit.	!	!	!	!
4A/	2.C\]	2.cc/]	4f\	[ >
4B-/	.	.	4g\	.
4G/	.	.	4e\	.
=18	=18	=18	=18	=18
!LO:TX:b:i:t=Fine.	!	!	!	!
2.A;/	2.FF\	2.f;/))	2.f\	]
=19||	=19||	=19||	=19||	=19||
(4G/	2.r	2.re	2.r	.
8Bn/L	.	.	.	.
8A/	.	.	.	.
8G/	.	.	.	.
8F/J	.	.	.	.
=20	=20	=20	=20	=20
4E/	2.r	2.re	2.r	.
4G/	.	.	.	.
4c/)	.	.	.	.
=21	=21	=21	=21	=21
(4Bn/	2.r	(4g/	2.re	fp
4G/	.	8bn/L	.	.
.	.	8a/	.	.
8A/L	.	8g/	.	.
8B/J	.	8f/J	.	.
=22	=22	=22	=22	=22
4c/	2.r	4e/	2.re	.
2B-X/)	.	4g/	.	.
.	.	4cc/)	.	.
=23	=23	=23	=23	=23
!	!	!	!	!LO:DY:a
(2.A/	2.r	(4cc/	(2.f\	ff
.	.	8dd/L	.	.
.	.	8cc/	.	.
.	.	8bn/	.	.
.	.	8dd/J	.	.
=24	=24	=24	=24	=24
!	!	!	!	!LO:DY:b=2
2.Bn/	(4D\	4ff/	4a-X\	f
.	8E\L	4ee/	4g\	.
.	8F\J	.	.	.
.	4G\)	4dd/)	4f\)	.
=25	=25	=25	=25	=25
!	!	!	!	!LO:DY:b=2
[2.c/	(4C\	[2.cc/	([2.e\	p >
.	8D\L	.	.	.
.	8C\	.	.	.
.	8BBn\	.	.	.
.	8C\J	.	.	.
=26	=26	=26	=26	=26
!LO:TX:b:i:t=rit.	!	!	!	!
2.c/])	4B-X\	2.cc/]	4e\]	]
.	4A\	.	4f\	.
!LO:TX:b:i:t=D.C. al fine.	!	!	!	!
.	4G\)	.	4b-X\)	.
*v	*v	*	*	*
*	*v	*v	*
=27||	=27||	=27||
*k[b-]	*k[b-]	*
*M3/4	*M3/4	*
*^	*^	*
!!LO:LB:g=original
!!LO:TX:B:a:t=Coda.
!	!LO:TX:i:b=2:t=Ped.	!	!	!LO:DY:t=pf
(2A/	(2.D\	(4dd/	(2.f#X\	fp
.	.	8ee-X/L	.	.
.	.	8dd/	.	.
4c/	.	8a/	.	.
.	.	8b-/J	.	.
=28	=28	=28	=28	=28
4.B-/	2.G\)	4.g/	2.g\)	.
8c/	.	8a/	.	.
4d/)	.	4b-/)	.	.
=29	=29	=29	=29	=29
([2.c/	(2.E\	(4cc/	(2.g\	.
.	.	8dd/L	.	.
.	.	8cc/	.	.
.	.	8g/	.	.
.	.	8b-/J	.	.
=30	=30	=30	=30	=30
4.c/]	2.F\)	4.a/	2.f\)	.
8B-/	.	8b-/	.	.
4A/)	.	4cc/)	.	.
=31	=31	=31	=31	=31
!	!	!	!	!LO:DY:a
(2.A/	(2.E-X\	(4ff/	[2.f\	f
.	.	8gg/L	.	.
.	.	8ff/	.	.
.	.	8ee/	.	.
.	.	8ff/J	.	.
=32	=32	=32	=32	=32
2.B-/	2.D\	4.ff/	2.f\_	.
.	.	8dd/	.	.
.	.	4b-/	.	.
=33	=33	=33	=33	=33
!!LO:LB:g=original
!	!	!	!	!LO:HP:a
4c/	2.C\	4a/	2f\]	>
4d/	.	4b-/	.	.
8c/L	.	8a/L	4e\	.
8B-/J	.	8g/J	.	.
=34	=34	=34	=34	=34
2.A/)	2.FF\)	2.f/)	2.c\	]
=35	=35	=35	=35	=35
!	!	!	!	!LO:DY:a
!	!	!	!	!LO:HP:a
!	!	!	!LO:TX:t=P:problem=drugie pp u dołu systemu	!
(2.A-X/	[2.FF\	[2.f/	(4Bn\	pp<
.	.	.	8d\L	.
.	.	.	8c\	.
.	.	.	8B\	.
.	.	.	8d\J	.
=36	=36	=36	=36	=36
4An/	2.FF\_	2.f/_	4c\	.
4G/	.	.	4B-X\	.
!LO:TX:b:i:t=rit.	!	!	!	!
8F/L	.	.	4A\	[[
8E-X/J	.	.	.	.
=37	=37	=37	=37	=37
!	!	!	!	!LO:HP:a
4D/	2.FF\_	2.f/_	4B-\	>
2D-X/	.	.	8c\L	.
.	.	.	8B-\	.
.	.	.	8A\	.
.	.	.	8G\J	.
=38	=38	=38	=38	=38
2.C/)	2.FF;\]	2.f;/]	2.A\)	]
*v	*v	*	*	*
*	*v	*v	*
==	==	==
*-	*-	*-
!!!system-decoration: {(s1,s2)}
!!!AIN: 1 organ
!!!ENC: Kamil Watkowski
!!!END: 2021-08-09
